X:1
T:A Song of Ice and Fire
T:A Song of Ice and Fire
T:Game of Thrones
%%score { 1 | 2 }
L:1/8
M:3/4
K:Bb
V:1 treble nm="Klavier" snm="Klav."
V:2 bass 
V:1
 G2 C2 EF | G2 C2 EF | G2 C2 EF | G2 C2 EF |[K:F] G2 C2 EF | G2 C2 EF | G2 C2 EF | G2 C2 EF | %8
[K:Bb]!8vb(! G,6!8vb)! |!8vb(! C,6!8vb)! |!8vb(! E,F, G,4!8vb)! |!8vb(! C,4 E,F,!8vb)! | %12
!8vb(! D2 G,2 B,C!8vb)! |!8vb(! D2 G,2 B,C!8vb)! |!8vb(! D2 G,2 B,C!8vb)! | %15
!8vb(! D2 G,2 B,2!8vb)! |[K:Eb]!8vb(! F,6!8vb)! |!8vb(! B,,6!8vb)! |!8vb(! E,D, F,4!8vb)! | %19
!8vb(! B,,6!8vb)! |!8vb(! E,D, C,2 A,B,!8vb)! |!8vb(! C2 F,2 A,B,!8vb)! |!8vb(! C2 F,2 A,B,!8vb)! | %23
!8vb(! C2 F,2 A,2!8vb)! | G6 | C6 | EF G4 | C4 EF |!8vb(! D2 G,2 B,C!8vb)! | %29
!8vb(! D2 G,2 B,C!8vb)! |!8vb(! D2 G,2 B,C!8vb)! |!8vb(! D2 G,2 B,2!8vb)! | F6 | B,6 | ED F4 | %35
 B,6 | ED C2 A,B, | C2 G,2 A,B, | C2 G,2 A,B, | C2 G,2 C2 | g6 | c6 | ef g4 | c4 ef | d2 G2 Bc | %45
 d2 G2 Bc | d2 G2 Bc | d2 G2 B2 | f6 | B6 | d3 e3 | d3 B3 | c2 G2 AB | c2 G2 AB | c2 G2 AB | %55
 c2 G2 AB | c6- | c4 Bc | B6- | B4 G2 | AC- C4- | C4 GA | G6- | G4 E2 | A,6- | A,4 DE | E2 A,2 E2 | %67
 F2 G,2 B,2 | C2 G,2 A,B, | C2 G,2 A,B, | C2 G,2 A,B, | C2 G,2 B,2 | c6- | c4 Bc | B6- | B6 | %76
 Ac- c4- | c6 | g6- | g6 | A6- | A6 | e6 | d6 | G2 G,2 A,B, | C2 G,2 A,B, | C2 G,2 A,B, | %87
 C2 G,2 B,2 |!8va(! c'2 g2 ab!8va)! |!8va(!!8va(! c'2 g2 ab!8va)!!8va)! | %90
!8va(!!8va(! c'2 g2 ab!8va)!!8va)! |!8va(! c'6-!8va)! |!8va(! c'6!8va)! |] %93
V:2
 C,6 | C,6 | C,6 | C,6 |[K:F] C,6 | C,6 | C,6 | C,6 |[K:Bb]!8vb(! C,,6!8vb)! |!8vb(! C,,6!8vb)! | %10
!8vb(! C,,6!8vb)! |!8vb(! C,,6!8vb)! | D,6 | D,6 | D,6 | D,6 |[K:Eb]!8vb(! B,,,6!8vb)! | %17
!8vb(! B,,,6!8vb)! |!8vb(! B,,,6!8vb)! |!8vb(! B,,,6!8vb)! | F,,6 | F,,6 | F,,6 | F,,6 | C,6 | %25
 C,6 | C,6 | C,6 | G,,6 | G,,6 | G,,6 | G,,6 | B,,6 | B,,6 | B,,6 | B,,6 | C,6 | C,6 | C,6 | C,6 | %40
 C,6 | C,6 | C,6 | C,6 | G,,6 | G,,6 | G,,6 | G,,6 | B,,6 | B,,6 | B,,6 | B,,6 | C,6 | C,6 | C,6 | %55
 C,6 | A,,6 | A,,6 | E,,6 | E,,6 | F,,6 | F,,6 | C,6 | C,6 | A,,6 | A,,6 | F,,6 | G,,6 | C,6 | %69
 C,6 | C,6 | C,6 | A,,6 | A,,6 | E,,6 | E,,6 | F,,6 | F,,6 | C,6 | C,6 | A,,6 | A,,6 | F,,6 | %83
 G,,6 | C,6 | C,6 | C,6 | C,6 | C6- | C6- | C6- | C6- | C6 |] %93

